germany/municipalities/07137060.svg

<?xml version="1.0"?>
<svg xmlns="http://www.w3.org/2000/svg" height="350" width="300">
<path d="m150 347.5c-81.057 0-147.5-65.77-147.5-147.5v-197.5h147.5v345z" fill="#0F47AF"/>
<g stroke="#000">
<g stroke-width="2" fill="#fff"><path d="m44.5 150c-9.665 0-17.5 7.84-17.5 17.5s7.835 17.5 17.5 17.5 17.5-7.84 17.5-17.5-7.835-17.5-17.5-17.5z"/><path d="m107.5 30c-9.665 0-17.5 7.835-17.5 17.5s7.835 17.5 17.5 17.5c9.66 0 17.5-7.835 17.5-17.5s-7.84-17.5-17.5-17.5z"/><path d="m27 47.5c0 9.665 7.835 17.5 17.5 17.5s17.5-7.835 17.5-17.5-7.835-17.5-17.5-17.5-17.5 7.835-17.5 17.5z"/><path d="m27 107.5c0 9.66 7.835 17.5 17.5 17.5s17.5-7.84 17.5-17.5c0-9.665-7.835-17.5-17.5-17.5s-17.5 7.835-17.5 17.5z"/><path d="m27 227.5c0 9.66 7.835 17.5 17.5 17.5s17.5-7.84 17.5-17.5-7.835-17.5-17.5-17.5-17.5 7.84-17.5 17.5z"/><path d="m90 107.5c0 9.66 7.835 17.5 17.5 17.5 9.66 0 17.5-7.84 17.5-17.5 0-9.665-7.84-17.5-17.5-17.5-9.665 0-17.5 7.835-17.5 17.5z"/><path d="m90 167.5c0 9.66 7.835 17.5 17.5 17.5 9.66 0 17.5-7.84 17.5-17.5s-7.84-17.5-17.5-17.5c-9.665 0-17.5 7.84-17.5 17.5z"/><path d="m90 227.5c0 9.66 7.835 17.5 17.5 17.5 9.66 0 17.5-7.84 17.5-17.5s-7.84-17.5-17.5-17.5c-9.665 0-17.5 7.84-17.5 17.5z"/><path d="m90 287.5c0 9.66 7.835 17.5 17.5 17.5 9.66 0 17.5-7.84 17.5-17.5s-7.84-17.5-17.5-17.5c-9.665 0-17.5 7.84-17.5 17.5z"/></g><path d="m297.5 2.5v197.5c0 81.73-66.44 147.5-147.5 147.5v-345h147.5z" stroke-width="4" fill="#fff"/>
<path stroke-width="2" d="m205 2.5v147.5h-54v40h54v146.75c13.58-6.02 27.1-12.57 40-24.439v-122.31h52.5v-40h-52.5v-147.5h-40z" fill="#DA121A"/>
<path stroke-width="5" d="m297.5 2.5v197.5c0 81.73-66.439 147.5-147.5 147.5-81.057 0-147.5-65.77-147.5-147.5v-197.5h295z" fill="none"/>
</g></svg>

<svg xmlns="http://www.w3.org/2000/svg" height="350" width="300"><path d="M150 347.5C68.943 347.5 2.5 281.73 2.5 200V2.5H150v345z" fill="#0F47AF"/><g stroke="#000"><g stroke-width="2" fill="#fff"><path d="M44.5 150c-9.665 0-17.5 7.84-17.5 17.5S34.835 185 44.5 185 62 177.16 62 167.5 54.165 150 44.5 150zM107.5 30C97.835 30 90 37.835 90 47.5S97.835 65 107.5 65c9.66 0 17.5-7.835 17.5-17.5S117.16 30 107.5 30zM27 47.5C27 57.165 34.835 65 44.5 65S62 57.165 62 47.5 54.165 30 44.5 30 27 37.835 27 47.5zM27 107.5c0 9.66 7.835 17.5 17.5 17.5S62 117.16 62 107.5C62 97.835 54.165 90 44.5 90S27 97.835 27 107.5zM27 227.5c0 9.66 7.835 17.5 17.5 17.5S62 237.16 62 227.5 54.165 210 44.5 210 27 217.84 27 227.5zM90 107.5c0 9.66 7.835 17.5 17.5 17.5 9.66 0 17.5-7.84 17.5-17.5 0-9.665-7.84-17.5-17.5-17.5-9.665 0-17.5 7.835-17.5 17.5zM90 167.5c0 9.66 7.835 17.5 17.5 17.5 9.66 0 17.5-7.84 17.5-17.5s-7.84-17.5-17.5-17.5c-9.665 0-17.5 7.84-17.5 17.5zM90 227.5c0 9.66 7.835 17.5 17.5 17.5 9.66 0 17.5-7.84 17.5-17.5s-7.84-17.5-17.5-17.5c-9.665 0-17.5 7.84-17.5 17.5zM90 287.5c0 9.66 7.835 17.5 17.5 17.5 9.66 0 17.5-7.84 17.5-17.5s-7.84-17.5-17.5-17.5c-9.665 0-17.5 7.84-17.5 17.5z"/></g><path d="M297.5 2.5V200c0 81.73-66.44 147.5-147.5 147.5V2.5h147.5z" stroke-width="4" fill="#fff"/><path stroke-width="2" d="M205 2.5V150h-54v40h54v146.75c13.58-6.02 27.1-12.57 40-24.439v-122.31h52.5v-40H245V2.501h-40z" fill="#DA121A"/><path stroke-width="5" d="M297.5 2.5V200c0 81.73-66.439 147.5-147.5 147.5C68.943 347.5 2.5 281.73 2.5 200V2.5h295z" fill="none"/></g></svg>
